X:6187
T:Southwest Wind, The
O:england
R:jig
D:Declan Masterson:
M:6/8
L:1/8
K:Dmix
~A3 AdB|cAG EFD|DGG DEG|AGE cGE|
~A2G AdB|cAG EFD|~D3 AGE|GED DEG|
~A3 A2d|cAG EFD|DGG GFG|DGG GFG|
~A2G AdB|cAG EFD|~D3 AGE|GED D2e
|:fed ed^c|ed^c d2e|fed efd|=cAG Ade|
fed efd|cAB c2d|cAG EAG|1 EFD D2e:|2 EFD D3||


